X:492
T:The Liverpool hornpipe
R:Hornpipe
O:England, Ireland, Scotland
B:Kerr's First p42
B:O'Neill's 1565
S:My arrangement from various sources
Z:Transcription, chords:Mike Long
M:4/4
L:1/8
K:D
AG|\
"D"FDFA dfaf|"G"gfed "A"dcBA|"G"GBGB "D"FAFA|"A"EDEF GFED|\
"D"FDFA dfaf|
"G"gfed "A"dcBA|"D"dfaf "A"bgec|"D"d2d2 d2:|\
|:(3(ABc)|\
"D"dfdf "A"cece|"G"BABc "D"dcBA|
"G"GBGB "D"FAFA|"A"EDEF GFED|"D"FDFA dfaf|"G"gfed "A"dcBA|\
"D"dfaf "A"bgec|"D"d2d2 d2:|
